Origami/22x22/apps/peek.svg

<svg width="22" height="22" version="1.1" viewBox="0 0 22 22" xmlns="http://www.w3.org/2000/svg">
 <path d="m11 1.5a10 10 0 0 0 -10 10 10 10 0 0 0 10 10 10 10 0 0 0 10 -10 10 10 0 0 0 -10 -10z" style="opacity:.2"/>
 <path d="M 11,1 A 10,10 0 0 0 1,11 10,10 0 0 0 11,21 10,10 0 0 0 21,11 10,10 0 0 0 11,1 Z" style="fill:#ff8e20"/>
 <path d="m11 1.5c-1.631909 0.00197-3.23854 0.404269-4.6796875 1.1699219l-2.9238281 14.820312a10 10 0 0 0 3.5566406 2.640625l1.0683594-5.603515c1.0696116 0.06078 2.3832986 0.06527 3.7499996-0.121094 1.581339-0.215637 3.280791-0.667349 4.732422-1.789062 1.451631-1.121716 2.496094-2.843378 2.496094-5.117188 0-0.881536-0.128149-1.6998125-0.355469-2.4453125-1.899958-2.2532491-4.697164-3.5545621-7.644531-3.5546875zm0.265625 2.9199219c0.402994-0.0016 0.799852 0.020598 1.193359 0.058594 0.796659 0.1171559 1.429162 0.3820718 1.820313 0.7617188s0.720703 0.9145273 0.720703 2.2597653c0 1.2261905-0.330537 2.379526-0.941406 2.851562-0.610869 0.472035-1.661417 0.883606-2.830078 1.042969-0.825428 0.112558-1.66949 0.12776-2.4238285 0.105469l1.2304685-6.9902344c0.418348-0.061869 0.827475-0.088243 1.230469-0.089844z" style="opacity:.2"/>
 <path d="M 11,1 C 9.368091,1.00197 7.76146,1.4032924 6.3203125,2.1689453 L 3.3173828,17.397461 c 0.9647997,1.152992 2.1771542,2.073607 3.5468752,2.693359 l 1.15625,-6.063242 c 1.069612,0.06078 2.383299,0.06527 3.75,-0.121094 1.581339,-0.215637 3.281767,-0.667348 4.733398,-1.789062 C 17.955537,10.995707 19,9.27381 19,7 19,6.118464 18.871851,5.299211 18.644531,4.553711 16.744573,2.3004619 13.947367,1.0001254 11,1 Z m 0.265625,2.9189453 c 0.402994,-0.0016 0.799853,0.021574 1.19336,0.05957 0.796659,0.1171559 1.429161,0.3820719 1.820312,0.7617189 C 14.670448,5.1198815 15,5.654762 15,7 c 0,1.2261905 -0.330537,2.379634 -0.941406,2.85167 -0.610869,0.472035 -1.660441,0.882852 -2.829102,1.042215 -0.825428,0.112558 -1.670466,0.128736 -2.4248045,0.106445 L 10.035156,4.008789 c 0.418348,-0.061869 0.827475,-0.088243 1.230469,-0.089844 z" style="fill:#ffffff"/>
 <path d="M 11,1 A 10,10 0 0 0 1.0705,9.926 10,9.5 0 0 1 11,1.5 10,9.5 0 0 1 20.961,10.2235 10,10 0 0 0 11,1 Z m 9.961,9.2235 A 10,10 0 0 1 21,11 10,9.5 0 0 0 20.961,10.2235 Z M 1.0705,9.926 A 10,9.5 0 0 0 1.0461,10.122 10,10 0 0 1 1.0705,9.926 Z M 1.0461,10.122 A 10,10 0 0 0 1.0002,11 10,9.5 0 0 1 1.0461,10.122 Z" style="fill:#ffffff;opacity:.2"/>
</svg>

<svg xmlns="http://www.w3.org/2000/svg" width="22" height="22" version="1.1" viewBox="0 0 22 22">
 <path style="opacity:0.2" d="m 11,1.5 a 10,10 0 0 0 -10,10 10,10 0 0 0 10,10 10,10 0 0 0 10,-10 10,10 0 0 0 -10,-10 z"/>
 <path style="fill:#ff8e20" d="M 11,1 A 10,10 0 0 0 1,11 10,10 0 0 0 11,21 10,10 0 0 0 21,11 10,10 0 0 0 11,1 Z"/>
 <path style="opacity:0.2" d="M 11,1.5 C 9.368091,1.50197 7.76146,1.904269 6.3203125,2.6699219 L 3.3964844,17.490234 a 10,10 0 0 0 3.5566406,2.640625 l 1.0683594,-5.603515 c 1.0696116,0.06078 2.3832986,0.06527 3.7499996,-0.121094 1.581339,-0.215637 3.280791,-0.667349 4.732422,-1.789062 C 17.955537,11.495472 19,9.77381 19,7.5 19,6.618464 18.871851,5.8001875 18.644531,5.0546875 16.744573,2.8014384 13.947367,1.5001254 11,1.5 Z m 0.265625,2.9199219 c 0.402994,-0.0016 0.799852,0.020598 1.193359,0.058594 0.796659,0.1171559 1.429162,0.3820718 1.820313,0.7617188 C 14.670448,5.6198817 15,6.154762 15,7.5 c 0,1.2261905 -0.330537,2.379526 -0.941406,2.851562 -0.610869,0.472035 -1.661417,0.883606 -2.830078,1.042969 C 10.403088,11.507089 9.559026,11.522291 8.8046875,11.5 L 10.035156,4.5097656 c 0.418348,-0.061869 0.827475,-0.088243 1.230469,-0.089844 z"/>
 <path style="fill:#ffffff" d="M 11,1 C 9.368091,1.00197 7.76146,1.4032924 6.3203125,2.1689453 L 3.3173828,17.397461 c 0.9647997,1.152992 2.1771542,2.073607 3.5468752,2.693359 l 1.15625,-6.063242 c 1.069612,0.06078 2.383299,0.06527 3.75,-0.121094 1.581339,-0.215637 3.281767,-0.667348 4.733398,-1.789062 C 17.955537,10.995707 19,9.27381 19,7 19,6.118464 18.871851,5.299211 18.644531,4.553711 16.744573,2.3004619 13.947367,1.0001254 11,1 Z m 0.265625,2.9189453 c 0.402994,-0.0016 0.799853,0.021574 1.19336,0.05957 0.796659,0.1171559 1.429161,0.3820719 1.820312,0.7617189 C 14.670448,5.1198815 15,5.654762 15,7 c 0,1.2261905 -0.330537,2.379634 -0.941406,2.85167 -0.610869,0.472035 -1.660441,0.882852 -2.829102,1.042215 -0.825428,0.112558 -1.670466,0.128736 -2.4248045,0.106445 L 10.035156,4.008789 c 0.418348,-0.061869 0.827475,-0.088243 1.230469,-0.089844 z"/>
 <path style="opacity:0.2;fill:#ffffff" d="M 11,1 A 10,10 0 0 0 1.0705,9.926 10,9.5 0 0 1 11,1.5 10,9.5 0 0 1 20.961,10.2235 10,10 0 0 0 11,1 Z m 9.961,9.2235 A 10,10 0 0 1 21,11 10,9.5 0 0 0 20.961,10.2235 Z M 1.0705,9.926 A 10,9.5 0 0 0 1.0461,10.122 10,10 0 0 1 1.0705,9.926 Z M 1.0461,10.122 A 10,10 0 0 0 1.0002,11 10,9.5 0 0 1 1.0461,10.122 Z"/>
</svg>
